X: 120
T:Tin Gee Gee
K:D"
M:4/4
L:1/8
||:fg|"D"a2 d2 dcde|"G6"e2 B2 B3 B|"A7"c2 c2 B2 A2|"D"a4 "A7"agfg|!
"D"a2 d2 dcde|"G6"e2 B2 B3 B|"A7"cccc B2 A2|"D"d6:||!
||:cd|"A7"e2 e2 e2 de|"D"f2 f2 f2 ef|"Em"g2 f2 e2 d2|"A7"a4 agfg|!
"D"a2 d2 dcde|"G6"e2 B2 B3 B|"A7"A2 a2 g2 e2|"D"d6:||
% <A name="D1X121">
